X: 22312
T: La Russe
R: polka
M: 2/4
K: Gmajor
|:D|GB/B/ Bd/d/|dg gf/g/|ag ec|ed d/c/B/A/|
GB/B/ Bd/d/|dg gf/g/|ed dF|AG G:|
K: Dmaj
|:B|Ad dc/B/|Aa af|gf ge|f/g/f/e/ dB/B/|
Ad dc/B/|Aa af|gf ge|d2 d:|

